X: 34
T: Polonesse in D Dur no 20 ur Anders Larssons notbok
R: Slängpolska
M: 3/4
L: 1/16
K: D
|:A2Bc d2AG F2ED|CDEF GFGB A4|A2Bc d2e2 f2ed|g2fe f2ed AdcB|
A2Bc d2AG F2ED|CDEF GFGB A4|A2Bc d2ef gfed|cdec d4 D4:|
|:a4 f4 d4|e2e^d e2e^d e4|g4 e4 d4|c2BA B2AG A4|
A2Bc d2AG F2ED|CDEF GFGB A4|A2Bc d2e2 f2ed|cdec d4 D4:|

